svg/blobs-icons/no-decorations/kitchen-machine-alt.svg

<svg xmlns="http://www.w3.org/2000/svg" xmlns:xlink="http://www.w3.org/1999/xlink" preserveAspectRatio="xMidYMid" width="216" height="214" viewBox="0 0 216 214"><defs><style>.cls-3{fill:#0cb04a}.cls-4{fill:#000;opacity:.35}.cls-5{fill:#ff3a2f}.cls-7{fill:#142a3b}.cls-16{fill:#000}.cls-17{fill:#fbb713}.cls-18{fill:#000;opacity:.2}</style></defs><g id="group-104svg"><path d="M101.378-.003s-73.721.0-73.721.0.0 72.154.0 72.154 64.506.0 64.506.0.0 113.177.0 113.177-92.151.0-92.151.0.0 27.799.0 27.799 101.366.0 101.366.0 110.582.0 110.582.0.0-199.23.0-199.23c0-7.672-6.202-13.9-13.824-13.9H101.378z" id="path-1" class="cls-3" fill-rule="evenodd"/><path d="M92.163 65.315s-64.506.0-64.506.0.0 6.836.0 6.836 64.506.0 64.506.0.0-6.836.0-6.836z" id="path-2" class="cls-4" fill-rule="evenodd"/><path d="M211.96 111.195s-46.076.0-46.076.0.0 101.932.0 101.932 46.076.0 46.076.0.0-101.932.0-101.932z" id="path-3" class="cls-5" fill-rule="evenodd"/><path d="M198.137-.003S189.467-.003 189.467-.003C190.695 2.074 191.448 4.471 191.448 7.06V189.187C191.448 198.633 183.791 206.29 174.344 206.29H80.867s-80.855.0-80.855.0S.012 213.127.012 213.127s101.365.0 101.365.0 110.583.0 110.583.0.0-199.23.0-199.23C211.96 6.225 205.759-.003 198.137-.003z" id="path-4" class="cls-4" fill-rule="evenodd"/><path d="M211.96 49.923s-55.292.0-55.292.0C154.684 49.923 153.076 48.315 153.076 46.33c0-1.983 1.608-3.591 3.59200000000001-3.591H211.96C213.944 42.739 215.552 44.347 215.552 46.33c0 1.985-1.608 3.593-3.59199999999998 3.593z" id="path-5" class="cls-7" fill-rule="evenodd"/><path d="M211.96 68.455s-55.292.0-55.292.0C154.684 68.455 153.076 66.847 153.076 64.864c0-1.984 1.608-3.593 3.59200000000001-3.593H211.96C213.944 61.271 215.552 62.88 215.552 64.864 215.552 66.847 213.944 68.455 211.96 68.455z" id="path-6" class="cls-7" fill-rule="evenodd"/><path d="M211.96 86.989s-55.292.0-55.292.0C154.684 86.989 153.076 85.379 153.076 83.397c0-1.985 1.608-3.592 3.59200000000001-3.592H211.96C213.944 79.805 215.552 81.412 215.552 83.397c0 1.982-1.608 3.592-3.59199999999998 3.592z" id="path-7" class="cls-7" fill-rule="evenodd"/><path d="M36.872 103.769s-12.704.0-12.704.0c-1.984.0-3.593-1.608-3.593-3.592C20.575 98.193 22.184 96.585 24.168 96.585H36.872C38.856 96.585 40.464 98.193 40.464 100.177c0 1.98399999999999-1.608 3.592-3.592 3.592z" id="path-8" class="cls-7" fill-rule="evenodd"/><path d="M64.518 94.502C62.534 94.502 60.926 92.894 60.926 90.911V72.151C60.926 70.167 62.534 68.559 64.518 68.559 66.502 68.559 68.11 70.167 68.11 72.151v18.76C68.11 92.894 66.502 94.502 64.518 94.502z" id="path-9" class="cls-7" fill-rule="evenodd"/><path d="M46.086 94.502C44.103 94.502 42.494 92.894 42.494 90.911V72.151C42.494 70.167 44.103 68.559 46.086 68.559c1.985.0 3.592 1.608 3.592 3.592v18.76C49.678 92.894 48.071 94.502 46.086 94.502z" id="path-10" class="cls-7" fill-rule="evenodd"/><path d="M55.303 122.305C53.318 122.305 51.71 120.696 51.71 118.712V109.446c0-1.985 1.608-3.593 3.593-3.593C57.286 105.853 58.895 107.461 58.895 109.446V118.712C58.895 120.696 57.286 122.305 55.303 122.305z" id="path-11" class="cls-7" fill-rule="evenodd"/><path d="M73.733 109.445s-36.861.0-36.861.0.0-18.534.0-18.534 36.861.0 36.861.0.0 18.534.0 18.534z" id="path-12" class="cls-5" fill-rule="evenodd"/><path d="M73.733 32.43C73.733 40.104 67.532 46.33 59.91 46.33c-7.644.0-13.823-6.226-13.823-13.9.0-7.673 6.179-13.899 13.823-13.899 7.622.0 13.823 6.226 13.823 13.899z" id="path-13" class="cls-5" fill-rule="evenodd"/><path d="M71.18 24.43c1.595 2.266 2.553 5.016 2.553 8C73.733 40.104 67.532 46.329 59.91 46.329 56.988 46.329 54.29 45.41 52.06 43.859c2.501 3.553 6.601 5.889 11.269 5.889C70.951 49.748 77.151 43.523 77.151 35.848 77.151 31.113 74.78 26.94 71.18 24.43z" id="path-14" class="cls-16" fill-rule="evenodd"/><path d="M46.696 184.381c20.769.0 37.604-16.835 37.604-37.603H9.094c0 20.768 16.835 37.603 37.602 37.603z" id="path-15" class="cls-17" fill-rule="evenodd"/><path d="M67.208 146.778c0 17.823-12.414 32.715-29.058 36.59C40.9 184.007 43.752 184.382 46.697 184.382c20.768.0 37.603-16.836 37.603-37.604H67.208z" id="path-16" class="cls-18" fill-rule="evenodd"/></g></svg>

<svg xmlns="http://www.w3.org/2000/svg" xmlns:xlink="http://www.w3.org/1999/xlink" preserveAspectRatio="xMidYMid" width="216" height="214" viewBox="0 0 216 214">
  <defs>
    <style>

      .cls-3 {
        fill: #0cb04a;
      }

      .cls-4 {
        fill: #000000;
        opacity: 0.35;
      }

      .cls-5 {
        fill: #ff3a2f;
      }

      .cls-7 {
        fill: #142a3b;
      }

      .cls-16 {
        fill: #000000;
      }

      .cls-17 {
        fill: #fbb713;
      }

      .cls-18 {
        fill: #000000;
        opacity: 0.2;
      }
    </style>
  </defs>
  <g id="group-104svg">
    <path d="M101.378,-0.003 C101.378,-0.003 27.657,-0.003 27.657,-0.003 C27.657,-0.003 27.657,72.151 27.657,72.151 C27.657,72.151 92.163,72.151 92.163,72.151 C92.163,72.151 92.163,185.328 92.163,185.328 C92.163,185.328 0.012,185.328 0.012,185.328 C0.012,185.328 0.012,213.127 0.012,213.127 C0.012,213.127 101.378,213.127 101.378,213.127 C101.378,213.127 211.960,213.127 211.960,213.127 C211.960,213.127 211.960,13.897 211.960,13.897 C211.960,6.225 205.758,-0.003 198.136,-0.003 C198.136,-0.003 101.378,-0.003 101.378,-0.003 Z" id="path-1" class="cls-3" fill-rule="evenodd"/>
    <path d="M92.163,65.315 C92.163,65.315 27.657,65.315 27.657,65.315 C27.657,65.315 27.657,72.151 27.657,72.151 C27.657,72.151 92.163,72.151 92.163,72.151 C92.163,72.151 92.163,65.315 92.163,65.315 Z" id="path-2" class="cls-4" fill-rule="evenodd"/>
    <path d="M211.960,111.195 C211.960,111.195 165.884,111.195 165.884,111.195 C165.884,111.195 165.884,213.127 165.884,213.127 C165.884,213.127 211.960,213.127 211.960,213.127 C211.960,213.127 211.960,111.195 211.960,111.195 Z" id="path-3" class="cls-5" fill-rule="evenodd"/>
    <path d="M198.137,-0.003 C198.137,-0.003 189.467,-0.003 189.467,-0.003 C190.695,2.074 191.448,4.471 191.448,7.060 C191.448,7.060 191.448,189.187 191.448,189.187 C191.448,198.633 183.791,206.290 174.344,206.290 C174.344,206.290 80.867,206.290 80.867,206.290 C80.867,206.290 0.012,206.290 0.012,206.290 C0.012,206.290 0.012,213.127 0.012,213.127 C0.012,213.127 101.377,213.127 101.377,213.127 C101.377,213.127 211.960,213.127 211.960,213.127 C211.960,213.127 211.960,13.897 211.960,13.897 C211.960,6.225 205.759,-0.003 198.137,-0.003 Z" id="path-4" class="cls-4" fill-rule="evenodd"/>
    <path d="M211.960,49.923 C211.960,49.923 156.668,49.923 156.668,49.923 C154.684,49.923 153.076,48.315 153.076,46.330 C153.076,44.347 154.684,42.739 156.668,42.739 C156.668,42.739 211.960,42.739 211.960,42.739 C213.944,42.739 215.552,44.347 215.552,46.330 C215.552,48.315 213.944,49.923 211.960,49.923 Z" id="path-5" class="cls-7" fill-rule="evenodd"/>
    <path d="M211.960,68.455 C211.960,68.455 156.668,68.455 156.668,68.455 C154.684,68.455 153.076,66.847 153.076,64.864 C153.076,62.880 154.684,61.271 156.668,61.271 C156.668,61.271 211.960,61.271 211.960,61.271 C213.944,61.271 215.552,62.880 215.552,64.864 C215.552,66.847 213.944,68.455 211.960,68.455 Z" id="path-6" class="cls-7" fill-rule="evenodd"/>
    <path d="M211.960,86.989 C211.960,86.989 156.668,86.989 156.668,86.989 C154.684,86.989 153.076,85.379 153.076,83.397 C153.076,81.412 154.684,79.805 156.668,79.805 C156.668,79.805 211.960,79.805 211.960,79.805 C213.944,79.805 215.552,81.412 215.552,83.397 C215.552,85.379 213.944,86.989 211.960,86.989 Z" id="path-7" class="cls-7" fill-rule="evenodd"/>
    <path d="M36.872,103.769 C36.872,103.769 24.168,103.769 24.168,103.769 C22.184,103.769 20.575,102.161 20.575,100.177 C20.575,98.193 22.184,96.585 24.168,96.585 C24.168,96.585 36.872,96.585 36.872,96.585 C38.856,96.585 40.464,98.193 40.464,100.177 C40.464,102.161 38.856,103.769 36.872,103.769 Z" id="path-8" class="cls-7" fill-rule="evenodd"/>
    <path d="M64.518,94.502 C62.534,94.502 60.926,92.894 60.926,90.911 C60.926,90.911 60.926,72.151 60.926,72.151 C60.926,70.167 62.534,68.559 64.518,68.559 C66.502,68.559 68.110,70.167 68.110,72.151 C68.110,72.151 68.110,90.911 68.110,90.911 C68.110,92.894 66.502,94.502 64.518,94.502 Z" id="path-9" class="cls-7" fill-rule="evenodd"/>
    <path d="M46.086,94.502 C44.103,94.502 42.494,92.894 42.494,90.911 C42.494,90.911 42.494,72.151 42.494,72.151 C42.494,70.167 44.103,68.559 46.086,68.559 C48.071,68.559 49.678,70.167 49.678,72.151 C49.678,72.151 49.678,90.911 49.678,90.911 C49.678,92.894 48.071,94.502 46.086,94.502 Z" id="path-10" class="cls-7" fill-rule="evenodd"/>
    <path d="M55.303,122.305 C53.318,122.305 51.710,120.696 51.710,118.712 C51.710,118.712 51.710,109.446 51.710,109.446 C51.710,107.461 53.318,105.853 55.303,105.853 C57.286,105.853 58.895,107.461 58.895,109.446 C58.895,109.446 58.895,118.712 58.895,118.712 C58.895,120.696 57.286,122.305 55.303,122.305 Z" id="path-11" class="cls-7" fill-rule="evenodd"/>
    <path d="M73.733,109.445 C73.733,109.445 36.872,109.445 36.872,109.445 C36.872,109.445 36.872,90.911 36.872,90.911 C36.872,90.911 73.733,90.911 73.733,90.911 C73.733,90.911 73.733,109.445 73.733,109.445 Z" id="path-12" class="cls-5" fill-rule="evenodd"/>
    <path d="M73.733,32.430 C73.733,40.104 67.532,46.330 59.910,46.330 C52.266,46.330 46.087,40.104 46.087,32.430 C46.087,24.757 52.266,18.531 59.910,18.531 C67.532,18.531 73.733,24.757 73.733,32.430 Z" id="path-13" class="cls-5" fill-rule="evenodd"/>
    <path d="M71.180,24.430 C72.775,26.696 73.733,29.446 73.733,32.430 C73.733,40.104 67.532,46.329 59.910,46.329 C56.988,46.329 54.290,45.410 52.060,43.859 C54.561,47.412 58.661,49.748 63.329,49.748 C70.951,49.748 77.151,43.523 77.151,35.848 C77.151,31.113 74.780,26.940 71.180,24.430 Z" id="path-14" class="cls-16" fill-rule="evenodd"/>
    <path d="M46.696,184.381 C67.465,184.381 84.300,167.546 84.300,146.778 C84.300,146.778 9.094,146.778 9.094,146.778 C9.094,167.546 25.929,184.381 46.696,184.381 Z" id="path-15" class="cls-17" fill-rule="evenodd"/>
    <path d="M67.208,146.778 C67.208,164.601 54.794,179.493 38.150,183.368 C40.900,184.007 43.752,184.382 46.697,184.382 C67.465,184.382 84.300,167.546 84.300,146.778 C84.300,146.778 67.208,146.778 67.208,146.778 Z" id="path-16" class="cls-18" fill-rule="evenodd"/>
  </g>
</svg>
